!! 00000] TT[WS
!!!OTL: Wangleni renyang wangbuliao hua
!!!ARE: Asia, China, Shanxi Hequ
!! Ethnic Group: Han
!! WII, 34 (1)
!!!SCT: J0445
!!!YEM: Copyright 1995, estate of Helmut Schaffrath.
**kern
*ICvox
*Ivox
*M2/4
*k[f#c#]
*D:
{8ee
8ee
4ee
=1
8ee
4ff#
8ee
=2
4dd
8b
8f#
=3
2e}
=4
{8ee
8ee
8ee
8ee
=5
8ee
16ff#
16ff#
8ff#
8ee
=6
4dd
4ee
=7
8ee
8dd
4b}
==
!!!AGN: Shange, Shanqu. Qingge
!!!ONB: ESAC (Essen Associative Code) Database: CHINA
!!!AMT: simple duple
!!!AIN: vox
!!!EED: Helmut Schaffrath
!!!EEV: 1.0
*-
